X: 1559
T: I Want to Go Home Again
B: australian traditional tunes wiki
M:6/8
L:1/8
Q: 3/8=100
K:G
V:1 
d|:"G"g3gfe|d2BG2B|"D7"A2A ABA|"G"G2Bd2e|
g3gfe|d2BG2B|"Em"Bcd "D7"B2A|"G"G3-G2d:|
|:"C"e2fg2e|"D"f2d- def|"C"g2e"D"f2d|"C"e3-eef|"G"g3gfe|
d2BG2e|"C"ggg gfe|"G"d2BG2A|"Em"Bcd"D"B2A|"G"G3-G2d:|
% abcbook-tune_id 6342d53ade4702787bd59ee0


% abcbook-boost 0
% abcbook-tablature 
% abcbook-transpose 
% abcbook-lastupdated 1665324371051
% abcbook-soundfonts 
% abcbook-repeats 1
% NFF Book 2010

